outputs/icons/action/trending_down_sharp.svg

<svg xmlns="http://www.w3.org/2000/svg" width="1200" height="1200" fill="none"><g clip-path="url(#a)"><path fill="#000" d="m800 900 114.5-114.5-244-244-200 200-370.5-371 70.5-70.5 300 300 200-200 315 314.5L1100 600v300z"/></g><defs><clipPath id="a"><path fill="#fff" d="M0 0h1200v1200H0z"/></clipPath></defs></svg>

<svg width="1200" height="1200" viewBox="0 0 1200 1200" fill="none" xmlns="http://www.w3.org/2000/svg"><g clip-path="url(#clip0_117_787)"><path d="M800 900L914.5 785.5L670.5 541.5L470.5 741.5L100 370.5L170.5 300L470.5 600L670.5 400L985.5 714.5L1100 600V900H800Z" fill="#1D1E23"/></g><defs><clipPath id="clip0_117_787"><path width="24" fill="white" d="M0 0H1200V1200H0V0z"/></clipPath></defs></svg>
